outputs/icons/editor/italic_sharp.svg

<svg width="1200" height="1200" viewBox="0 0 1200 1200" fill="none" xmlns="http://www.w3.org/2000/svg"><g clip-path="url(#clip0_125_1484)"><path d="M500 200V350H610.5L439.5 750H300V900H700V750H589.5L760.5 350H900V200H500Z" fill="black"/></g><defs><clipPath id="clip0_125_1484"><path width="24" fill="white" d="M0 0H1200V1200H0V0z"/></clipPath></defs></svg>

<svg xmlns="http://www.w3.org/2000/svg" width="1200" height="1200" fill="none"><g clip-path="url(#a)"><path fill="#000" d="M500 200v150h110.5l-171 400H300v150h400V750H589.5l171-400H900V200z"/></g><defs><clipPath id="a"><path fill="#fff" d="M0 0h1200v1200H0z"/></clipPath></defs></svg>
